X:1
T:Thou Wilt Remember Me, CMD
T: John Robson Sweney (1837-1899)
T:Thou Wilt Remember Me, CMD
T:Public Domain
C:John Robson Sweney (1837-1899)
Z:Public Domain
%%score ( 1 2 ) ( 3 4 )
L:1/8
M:6/8
K:Eb
V:1 treble 
V:2 treble 
V:3 bass 
V:4 bass 
V:1
 E [EG]2 [EG](GF)E | [GB]2 [GB] [GB]2 [GB] | [Ge]2 [Ac] ([GB][EG])E | [DF]3- [DF]2 [DA] | %4
 [EG]2 [EG] (GF)E | [GB]2 [GB] [GB]2 [Ge] | [Fe]2 [Fe] [Fd]2 [Fc] | [FB]3- [FB]2 [AB] | %8
 [Ge]2 [Ge] ([Ac][GB])[EG] | [FB]2 [AB] [GB]2 [GB] | [Ge]2 [Ge] [Ac][GB][EG] | [DF]3- [DF]2 [DA] | %12
 [EG]2 [EG] (GF)E | [GB]2 [GB] [GB]2 [Ge] | (ec)[FA] [EG]2 [DF] | E3- E2 x |] x5 |] %17
V:2
 E x2 E2 E x | x6 | x5 E | x6 | x3 E2 E | x6 | x6 | x6 | x6 | x6 | x6 | x6 | x3 E2 E | x6 | A2 x4 | %15
 E3- E2 x |] x5 |] %17
V:3
 [E,G,] x6 | [E,B,]2 [E,B,] (B,A,)[E,G,] | [E,E]2 [E,E] [E,E]2 [E,E] | [E,B,]2 [E,E] (EB,)[G,B,] | %4
 B,3- B,2 [B,,B,] | [E,B,]2 [E,B,] (B,A,)[E,G,] | [E,E]2 [E,E] [E,E]2 [E,B,] | %7
 [F,=A,]2 [F,A,] [F,B,]2 [F,E] | [B,D]3- [B,D]2 B, | [E,B,]2 [E,B,] [E,E]2 (B,/E/) | %10
 [B,D]2 [B,F] [E,E]2 [E,E] | [E,B,]2 [E,B,] [E,E]2 [E,B,] | [B,,B,]3- [B,,B,]2 [B,,B,] | %13
 [E,B,]2 [E,B,] (B,A,)[E,G,] | [E,E]2 [E,E] [E,E]2 [E,B,] | (CE)[A,C] B,2 [B,,A,] |] %16
 [E,G,]3- [E,G,]2 |] %17
V:4
 x7 | x3 E,2 x | x6 | x3 E,2 x | B,3- B,2 x | x3 D,2 x | x6 | x6 | x5 B, | x5 E, | x6 | x6 | x6 | %13
 x3 E,2 x | x6 | A,2 B,2 x2 |] x5 |] %17

